X:632
T: AUS MEINES HERZENS GRUNDE
N: E1989
O: Europa, Mitteleuropa, Deutschland
R: geistlich, Dank -, Lob - Lied, Choral; Morgen - Lied
M: 4/4
L: 1/8
K: G
G2 | G2d2B2G2 | GAB2A2
B2 | d2B2A2A2 | G4z2
G2 | G2d2B2G2 | GAB2A2
B2 | d2B2A2A2 | G4z2
B2 | B2d2d2B2 | A6
G2 | B2A2d2A2 | B4G2
B2 | d2c2B2G2 | GAB2A2
B2 | d2B2A2A2 | G4z2

